!!!!SEGMENT: Bau1002b-Missa_En_douleur_en_tristesse-Gloria.krn
!!!id: Bau1002b
!!!OTL: Gloria
!!!AGN: Mass; Gloria
!!!SCT: Lenaerts (1963)
!!!voices: 5
!!!COM: Noel Bauldeweyn
!!!OPR: Missa En douleur en tristesse
**kern	**kern	**kern	**kern	**kern
*part5	*part4	*part3	*part2	*part1
*staff5	*staff4	*staff3	*staff2	*staff1
*I"Bassus	*I"Tenor II	*I"Tenor I	*I"Altus	*I"Superius
*I'B	*I'T. II	*I'T. I	*I'A	*I'S
*clefF4	*clefGv2	*clefGv2	*clefGv2	*clefG2
*k[b-]	*k[b-]	*k[b-]	*k[b-]	*k[b-]
*F:	*F:	*F:	*F:	*F:
*M2/1	*M2/1	*M2/1	*M2/1	*M2/1
*met(C|)	*met(C|)	*met(C|)	*met(C|)	*met(C|)
!!section: Et in terra pax
!!!OMD: Et in terra pax
=1	=1	=1	=1	=1
!	!	!LO:TX:a:t=Canon&colon; tenor I/superius at the octave	!	!
0r	0r	0r	1.G	0r
.	.	.	2G	.
=2	=2	=2	=2	=2
0r	0r	0r	2B-y	0r
.	.	.	2B-y	.
.	.	.	2A	.
.	.	.	2A	.
=3	=3	=3	=3	=3
1.G	1.G	0r	2G	0r
.	.	.	2G	.
.	.	.	[1d	.
2G	2G	.	.	.
=4	=4	=4	=4	=4
2G	2B-y	0r	2d]	0r
2G	2B-y	.	2.e	.
2F	2A	.	.	.
.	.	.	4d	.
2D	2A	.	[2d	.
=5	=5	=5	=5	=5
2E	2G	0r	4d]	0r
.	.	.	8cL	.
.	.	.	8B-yJ	.
2E	2G	.	2c	.
1D	1d	.	1F	.
=6	=6	=6	=6	=6
1r	2r	1.G	2r	0r
.	2d	.	2B-y	.
2r	2d	.	2B-y	.
2G	[2d	2G	2B-y	.
=7	=7	=7	=7	=7
2G	2d]	2B-y	2G	0r
2G	2B-y	2B-y	4d	.
.	.	.	4e	.
2F	2c	2A	4f	.
.	.	.	4g	.
2D	2F	2A	4a	.
.	.	.	4f	.
=8	=8	=8	=8	=8
1E	2.B-y	2G	4g	0r
.	.	.	4e	.
.	.	2G	1g	.
.	4G	.	.	.
1D	1A	1d	.	.
.	.	.	2f#i	.
=9	=9	=9	=9	=9
0GG	1B-y	1r	1g	1.g
.	2r	1d	2r	.
.	[2B-y	.	2g	2g
=10	=10	=10	=10	=10
2r	2B-]	2.B-y	2g	2b-y
2G	2G	.	2g	2b-y
.	.	4c	.	.
2D	2A	2d	2f	2a
2F	2F	[2c	4e	2a
.	.	.	4d	.
=11	=11	=11	=11	=11
1E	1G	2c]	1e	2g
.	.	1B-y	.	2g
1D	1F	.	1f	1dd
.	.	2A	.	.
=12	=12	=12	=12	=12
2.BB-y	2D	1B-y	1f	1r
.	1d	.	.	.
4C	.	.	.	.
2D	.	1r	2f	1dd
2GG	[2B-y	.	[2g	.
=13	=13	=13	=13	=13
1.G	4B-]	0r	2g]	2.b-y
.	4c	.	.	.
.	2d	.	4f	.
.	.	.	4e	4cc
.	1G	.	2d	2dd
2C	.	.	[2e	[2cc
=14	=14	=14	=14	=14
2r	0r	0r	2e]	2cc]
2D	.	.	2d	1b-y
2E	.	.	1c	.
2F	.	.	.	2a
=15	=15	=15	=15	=15
1BB-y	2r	2r	2B-y	1b-y
.	2D	2B-y	2.f	.
1r	2E	2B-y	.	1r
.	.	.	4e	.
.	2F	2A	4d	.
.	.	.	4c	.
=16	=16	=16	=16	=16
2r	2BB-y	1B-y	2d	0r
2D	1B-y	.	2B-y	.
2E	.	1r	1c	.
2F	2A	.	.	.
=17	=17	=17	=17	=17
1BB-y	2.B-y	1d	2B-y	0r
.	.	.	2d	.
.	4A	.	.	.
1r	2G	2B-y	2e	.
.	2F	2c	2f	.
=18	=18	=18	=18	=18
2r	0r	2d	1B-y	2r
2D	.	2B-y	.	2b-y
2E	.	1c	2r	2b-y
2F	.	.	2f	2a
=19	=19	=19	=19	=19
1G	2r	1B-y	2e	1b-y
.	1B-y	.	1d	.
1E	.	1r	.	1r
.	2G	.	2c#i	.
=20	=20	=20	=20	=20
1.D	2A	0r	1.d	1dd
.	1F	.	.	.
.	.	.	.	2b-y
2C	2E	.	2e	2cc
=21	=21	=21	=21	=21
2BB-y	2D	0r	2f	2dd
2GG	1d	.	2g	2b-y
1C	.	.	1e	1cc
.	2c	.	.	.
=22	=22	=22	=22	=22
0GG	1d	1.G	1d	1b-y
.	2.G	.	2.d	1r
.	.	2B-y	.	.
.	4G	.	4e	.
=23	=23	=23	=23	=23
2r	2F	2A	4f	0r
.	.	.	4d	.
2G	2E	2G	1g	.
2A	1D	1d	.	.
2A	.	.	2f#i	.
=24	=24	=24	=24	=24
2B-y	2r	2r	2g	0r
2.BB-y	1B-y	2d	2.d	.
.	.	2d	.	.
4C	.	.	4e	.
2D	2A	2d	2f	.
=25	=25	=25	=25	=25
0GG	2G	2.B-y	2g	1.g
.	2.B-y	.	4f	.
.	.	4c	4e	.
.	.	2d	2.d	.
.	4A	.	.	.
.	2G	2B-y	.	2b-y
.	.	.	4e	.
=26	=26	=26	=26	=26
2r	2F	1c	2f	2a
2C	1G	.	2e	2g
2GG	.	1B-y	1d	1dd
2G	[2B-y	.	.	.
=27	=27	=27	=27	=27
1G	2B-]	0r	1r	2r
.	2G	.	.	2dd
2F	2A	.	1f	2dd
2D	2B-y	.	.	2dd
=28	=28	=28	=28	=28
2E	2G	0r	2g	2.b-y
4D	2.A	.	1f	.
4C	.	.	.	4cc
2BB-y	.	.	.	2dd
.	4G	.	.	.
2GG	[2G	.	2g	2b-y
=29	=29	=29	=29	=29
1AA	2G]	0r	2e	1cc
.	2F#i	.	2f	.
[1GG	1G	.	[1d	1b-y
=30	=30	=30	=30	=30
1GG]	2r	2r	1d]	0r
.	2.d	2B-y	.	.
2r	.	2B-y	2r	.
.	4d	.	.	.
[2GG	2d	2B-y	[2g	.
=31	=31	=31	=31	=31
4GG]	1.d	2.d	4g]	0r
4GG	.	.	4g	.
2GG	.	.	2g	.
.	.	4c	.	.
2D	.	2B-y	2d	.
2E	2B-y	2G	2g	.
=32	=32	=32	=32	=32
2C	2c	1A	2e	0r
2D	2A	.	2f	.
1GG	[1B-y	2G	[1g	.
.	.	2d	.	.
=33	=33	=33	=33	=33
2G	1B-]	2d	2g]	2r
2G	.	2d	2.d	2b-y
2G	1r	2.B-y	.	2b-y
.	.	.	4d	.
2G	.	.	[2e	2b-y
.	.	4A	.	.
=34	=34	=34	=34	=34
2G	0r	2G	4e]	2.dd
.	.	.	4d	.
2D	.	2F	2d	.
.	.	.	.	4cc
2E	.	1G	2B-y	2b-y
2E	.	.	2c	2g
=35	=35	=35	=35	=35
1D	1r	1F	2A	1a
.	.	.	2f	.
1r	2r	1r	2e	2g
.	[2G	.	[2d	2dd
=36	=36	=36	=36	=36
0r	2G]	2.d	4d]	2dd
.	.	.	4c	.
.	2G	.	4B-y	2dd
.	.	4d	4A	.
.	2G	2d	4G	2.b-y
.	.	.	4F	.
.	2G	2e	[2B-y	.
.	.	.	.	4a
=37	=37	=37	=37	=37
0r	2G	2d	4B-]	2g
.	.	.	4A	.
.	2D	2d	2A	2f#i
.	2E	2B-y	4G	1g
.	.	.	4F	.
.	2E	2c	2G	.
=38	=38	=38	=38	=38
2.D	1D	1d	2A	1f
.	.	.	1d	.
4D	.	.	.	.
2D	1r	1r	.	1r
2E	.	.	2c	.
=39	=39	=39	=39	=39
2D	2.A	0r	2d	2.dd
2D	.	.	1d	.
.	4A	.	.	4dd
2BB-y	2B-y	.	.	2dd
2C	2G	.	2c	2ee
=40	=40	=40	=40	=40
1D	2F	2r	2.f	2dd
.	1B-y	2d	.	2dd
.	.	.	4e	.
1r	.	2d	2d	2b-y
.	2A	2e	2c	2cc
=41	=41	=41	=41	=41
0r	1D	2d	2B-y	1dd
.	.	2d	2A	.
.	1E	2B-y	1G	1r
.	.	2c	.	.
=42	=42	=42	=42	=42
1D	1D	1d	2A	0r
.	.	.	2d	.
2D	1r	1r	2d	.
2E	.	.	2c	.
=43	=43	=43	=43	=43
2D	2A	0r	2.d	2r
2D	2A	.	.	2dd
.	.	.	4d	.
2BB-y	2B-y	.	2d	2dd
2C	[2A	.	2c	2ee
=44	=44	=44	=44	=44
1D	2A]	2.d	1f	2dd
.	2F	.	.	2dd
.	.	4d	.	.
1r	2B-y	2d	1r	2b-y
.	2A	2e	.	2cc
=45	=45	=45	=45	=45
1r	1D	1d	2r	1dd
.	.	.	1f	.
2.D	2.F	2d	.	1r
.	.	2d	2f	.
4D	4F	.	.	.
=46	=46	=46	=46	=46
2D	2F	2B-y	2f	0r
2E	2G	2c	2c	.
1D	1A	1d	1f	.
=47	=47	=47	=47	=47
2D	2.F	1.B-y	2.f	2.dd
2D	.	.	.	.
.	4F	.	4e	4dd
2BB-y	2G	.	2d	2dd
2AA	2C	2c	2c	2ee
=48	=48	=48	=48	=48
1D	1F	1A	1d	1dd
[1G	[1B-y	1G	2r	2dd
.	.	.	[2d	2dd
=49	=49	=49	=49	=49
2G]	2B-]	0r	2d]	2b-y
2E	2G	.	1g	2cc
1D	1A	.	.	1dd
.	.	.	2f#i	.
=50	=50	=50	=50	=50
1GG	1.G	2.d	1.g	1.b-y
.	.	4d	.	.
1r	.	2e	.	.
.	2C	2e	2e	2cc
=51	=51	=51	=51	=51
1r	1D	1d	1f	1a
2.G	2.B-y	1d	2.d	1g
4G	4B-y	.	4d	.
=52	=52	=52	=52	=52
2G	2B-y	2B-y	2d	0r
2F	2A	2c	2c	.
2D	2F	2d	2.B-y	.
2E	[2G	[2B-y	.	.
.	.	.	4c	.
=53	=53	=53	=53	=53
1D	2G]	4B-]	4d	2.dd
.	.	4c	4e	.
.	2F	4d	2f	.
.	.	4B-y	.	4dd
1C	2G	1c	2e	2ee
.	2A	.	2c	2ee
=54	=54	=54	=54	=54
1GG	1B-y	2B-y	2d	1dd
.	.	2G	1g	.
1D	1r	1A	.	1dd
.	.	.	2f#i	.
=55	=55	=55	=55	=55
2E	2r	1G	2g	2b-y
2C	1G	.	2e	2cc
2BB-y	.	1r	1d	2dd
[2GG	2G	.	.	[2b-y
=56	=56	=56	=56	=56
2GG]	1G	2r	1g	4b-]
.	.	.	.	4cc
1G	.	1B-y	.	4dd
.	.	.	.	4b-y
.	1A	.	2e	1cc
2F	.	[2A	2f	.
=57	=57	=57	=57	=57
2G	2B-y	4A]	2d	2b-y
.	.	4G	.	.
2E	2c	2.G	2c	2g
1D	2A	.	2r	1a
.	.	8F#iL	.	.
.	.	8EJ	.	.
.	[2d	2F#i	2d	.
=58	=58	=58	=58	=58
1E	4d]	1G	2.B-y	1g
.	4c	.	.	.
.	1c	.	.	.
.	.	.	8AL	.
.	.	.	8GJ	.
1D	.	1d	2A	1r
.	2B-y	.	2B-y	.
=59	=59	=59	=59	=59
4C	2A	1e	2c	2r
4D	.	.	.	.
4E	2.G	.	2B-y	1b-y
4F	.	.	.	.
2G	.	1d	2G	.
.	4F	.	.	.
2F	2D	.	2A	[2a
=60	=60	=60	=60	=60
2G	2r	2B-y	2d	4a]
.	.	.	.	4g
2C	2A	2c	2e	2.g
1D	2D	1A	1d	.
.	.	.	.	8f#iL
.	.	.	.	8eJ
.	2F	.	.	2f#i
=61	=61	=61	=61	=61
[0GG	2E	[0G	2r	[0g
.	2D	.	2d	.
.	1E	.	2B-y	.
.	.	.	2c	.
=62	=62	=62	=62	=62
0GG_	[0D	0G_	0d	0g_
=	=	=	=	=
00GG]	00D]	00G]	00d	00g]
=||	=||	=||	=||	=||
*M2/1	*M2/1	*M2/1	*M2/1	*M2/1
*met(C|)	*met(C|)	*met(C|)	*met(C|)	*met(C|)
!!section: Qui tollis
!!!OMD: Qui tollis
!	!	!LO:TX:a:t=Canon&colon; tenor I/superius at the octave	!	!
0r	0r	0r	0G	0r
=63	=63	=63	=63	=63
1r	0r	0r	1B-y	0r
1D	.	.	1B-y	.
=64	=64	=64	=64	=64
1F	0r	0r	1A	0r
1F	.	.	1A	.
=65	=65	=65	=65	=65
1E	0r	0G	1G	0r
1E	.	.	1G	.
=66	=66	=66	=66	=66
1D	1r	1B-y	0d	0r
1D	1D	1B-y	.	.
=67	=67	=67	=67	=67
1A	1F	1A	2r	0r
.	.	.	2c	.
1r	1F	1A	2c	.
.	.	.	2c	.
=68	=68	=68	=68	=68
1C	1E	1G	2.c	0g
.	.	.	4d	.
2C	1E	1G	1e	.
2C	.	.	.	.
=69	=69	=69	=69	=69
2BB-y	1D	0d	2f	1b-y
2GG	.	.	2g	.
[1D	1D	.	2f	1b-y
.	.	.	[2d	.
=70	=70	=70	=70	=70
2D]	1A	1r	2d]	1a
2E	.	.	4c	.
.	.	.	4B-y	.
1F	2r	1d	1A	1a
.	2A	.	.	.
=71	=71	=71	=71	=71
1G	1B-y	1d	2r	1g
.	.	.	2G	.
2r	2G	1d	2B-y	1g
[2G	[2B-y	.	2G	.
=72	=72	=72	=72	=72
2G]	2B-]	2.B-y	2.d	0dd
4F	4A	.	.	.
4E	4G	4c	4e	.
2D	2A	2d	2f	.
2G	[2B-y	2B-y	2d	.
=73	=73	=73	=73	=73
2E	4B-]	1c	2g	1r
.	4G	.	.	.
2F	2A	.	4f	.
.	.	.	4e	.
1G	2B-y	1B-y	4d	1dd
.	.	.	4B-y	.
.	2G	.	2b-y	.
=74	=74	=74	=74	=74
2F	2A	0r	2a	1dd
2G	2.B-y	.	2.g	.
1D	.	.	.	1dd
.	8AL	.	8f#iL	.
.	8GJ	.	8eJ	.
.	2A	.	2f#i	.
=75	=75	=75	=75	=75
1G	0G	0r	1g	2.b-y
.	.	.	.	4cc
1B-y	.	.	2r	2dd
.	.	.	2d	2b-y
=76	=76	=76	=76	=76
1A	2r	0r	2e	1cc
.	2c	.	2f	.
2.G	2d	.	[1g	1b-y
.	2d	.	.	.
4F	.	.	.	.
=77	=77	=77	=77	=77
2E	2c	0G	2g]	0r
2D	2B-y	.	2d	.
1C	2c	.	2e	.
.	2c	.	2e	.
=78	=78	=78	=78	=78
1BB-y	2F	1B-y	2d	0r
.	2D	.	4G	.
.	.	.	4A	.
4GG	1G	1B-y	4B-y	.
4AA	.	.	4c	.
4BB-y	.	.	4d	.
4C	.	.	4e	.
=79	=79	=79	=79	=79
2D	2F	1A	2f	0r
2C	2E	.	1g	.
1D	1D	1A	.	.
.	.	.	2f#i	.
=80	=80	=80	=80	=80
0GG	1r	1G	1g	0g
.	[1D	1G	1r	.
=81	=81	=81	=81	=81
1.GG	2D]	1d	1.g	1b-y
.	2D	.	.	.
.	1G	1r	.	1b-y
2GG	.	.	2g	.
=82	=82	=82	=82	=82
0D	1.A	1.d	0f	1a
.	.	.	.	1a
.	2A	2d	.	.
=83	=83	=83	=83	=83
1.G	1B-y	1d	1r	1g
.	[1B-y	1r	[1g	1g
2G	.	.	.	.
=84	=84	=84	=84	=84
2G	2B-]	1.d	2g]	1dd
2G	2B-y	.	2g	.
1G	2B-y	.	2g	1r
.	2B-y	2d	2g	.
=85	=85	=85	=85	=85
1D	1A	2d	0f	1.dd
.	.	2d	.	.
[1BB-y	2.D	1d	.	.
.	.	.	.	2dd
.	4E	.	.	.
=86	=86	=86	=86	=86
2BB-]	2F	1B-y	1d	1dd
2GG	1G	.	.	.
1AA	.	1c	1r	1r
.	2F#i	.	.	.
=87	=87	=87	=87	=87
1GG	1G	0B-y	2r	1.dd
.	.	.	1g	.
1r	2r	.	.	.
.	[2B-y	.	2f	2dd
=88	=88	=88	=88	=88
0r	2B-]	0r	2g	2dd
.	2B-y	.	2f	2dd
.	2B-y	.	2.d	1dd
.	2B-y	.	.	.
.	.	.	4e	.
=89	=89	=89	=89	=89
0r	2B-y	0r	2f	1b-y
.	2G	.	1g	.
.	1A	.	.	1cc
.	.	.	2f#i	.
=90	=90	=90	=90	=90
2r	1G	1B-y	0g	0b-y
2G	.	.	.	.
2G	1r	2B-y	.	.
2G	.	2B-y	.	.
=91	=91	=91	=91	=91
2B-y	0r	2d	0r	0r
2B-y	.	2d	.	.
2A	.	2c	.	.
[2G	.	2B-y	.	.
=92	=92	=92	=92	=92
2G]	0r	1A	1r	0r
2F#i	.	.	.	.
[1G	.	1G	2r	.
.	.	.	2g	.
=93	=93	=93	=93	=93
1G]	0r	2.d	2g	1b-y
.	.	.	2g	.
.	.	4c	.	.
2G	.	2B-y	2.d	2b-y
2G	.	4A	.	2b-y
.	.	4G	4e	.
=94	=94	=94	=94	=94
2F	1r	2A	4f	2dd
.	.	.	4g	.
2BB-y	.	2B-y	2.f	2dd
1C	2c	1G	.	2cc
.	.	.	8eL	.
.	.	.	8dJ	.
.	2c	.	4f	2b-y
.	.	.	4e	.
=95	=95	=95	=95	=95
1FF	2c	1F	1f	1a
.	2c	.	.	.
1r	2.B-y	2r	1r	1g
.	.	[2d	.	.
.	4A	.	.	.
=96	=96	=96	=96	=96
0r	2G	2d]	2B-y	2.dd
.	2F	2d	2A	.
.	.	.	.	4cc
.	2G	2d	2G	2b-y
.	2E	2e	2B-y	4a
.	.	.	.	4g
=97	=97	=97	=97	=97
0r	2F	2d	2A	2a
.	2G	2B-y	2G	2b-y
.	2E	1c	1r	1g
.	2E	.	.	.
=98	=98	=98	=98	=98
2.D	1D	1d	2r	1f
.	.	.	2d	.
4D	.	.	.	.
2E	1r	1r	2c	2r
[2D	.	.	[2f	[2dd
=99	=99	=99	=99	=99
2D]	1A	0r	2f]	2dd]
2D	.	.	1f	2dd
2BB-y	2B-y	.	.	2dd
2C	2G	.	2e	2ee
=100	=100	=100	=100	=100
1D	2F	1d	2f	2dd
.	2B-y	.	2d	2b-y
1r	2A	1e	1c	1cc
.	2A	.	.	.
=101	=101	=101	=101	=101
1D	1F	1d	0r	1dd
1E	1r	2B-y	.	1r
.	.	2c	.	.
=102	=102	=102	=102	=102
1D	1A	1d	2r	0r
.	.	.	1d	.
2BB-y	2B-y	1r	.	.
2C	[2A	.	2e	.
=103	=103	=103	=103	=103
1D	2A]	0r	2d	1dd
.	2F	.	1B-y	.
1r	2G	.	.	1ee
.	2A	.	2c	.
=104	=104	=104	=104	=104
0r	2r	1d	1d	1dd
.	2F	.	.	.
.	2G	1e	1r	2b-y
.	[2A	.	.	2cc
=105	=105	=105	=105	=105
1D	2A]	2d	2r	1dd
.	2F	2d	1d	.
1E	2G	2B-y	.	1r
.	2G	2c	2c	.
=106	=106	=106	=106	=106
2D	1A	0d	1f	0r
2D	.	.	.	.
2.BB-y	1r	.	1f	.
4C	.	.	.	.
=107	=107	=107	=107	=107
1D	1F	1B-y	2f	1dd
.	.	.	2f	.
1C	1G	1c	2e	1ee
.	.	.	2c	.
=108	=108	=108	=108	=108
1D	1F	1A	1f	2dd
.	.	.	.	2dd
1E	2.B-y	1G	2r	2b-y
.	.	.	[2g	2cc
.	4G	.	.	.
=109	=109	=109	=109	=109
1D	1A	0r	2g]	0dd
.	.	.	2f#i	.
[1G	1G	.	1g	.
=110	=110	=110	=110	=110
1G]	1B-y	0r	1d	1b-y
1C	2A	.	1e	1cc
.	[2G	.	.	.
=111	=111	=111	=111	=111
1D	2G]	0r	1d	1a
.	2F#i	.	.	.
1GG	1G	.	1B-y	1g
=	=	=	=	=
*M3/1	*M3/1	*M3/1	*M3/1	*M3/1
*met(O3)	*met(O3)	*met(O3)	*met(O3)	*met(O3)
0G	0B-y	0d	1%3r	1%3r
1F	1A	1f	.	.
=112	=112	=112	=112	=112
1C	1G	1e	1%3r	1%3r
1D	1F	1d	.	.
1E	1G	1c	.	.
=113	=113	=113	=113	=113
1D	1A	1d	1%3r	1%3r
1E	1G	1B-y	.	.
1C	1E	1c	.	.
=114	=114	=114	=114	=114
1BB-y	1F	1d	0f	0dd
1BB-y	1F	1d	.	.
1D	1F	1B-y	1d	1ff
=115	=115	=115	=115	=115
1C	1G	1c	1g	1ee
1D	1D	0A	1f	1dd
1AA	1A	.	[1e	1cc
=116	=116	=116	=116	=116
1.BB-y	1r	1G	2e]	1dd
.	.	.	2d	.
.	1G	0r	1d	1b-y
2GG	.	.	.	.
1AA	2E	.	1c	1cc
.	2F	.	.	.
=117	=117	=117	=117	=117
1GG	2G	1%3r	0B-y	1dd
.	2A	.	.	.
0G	2B-y	.	.	1dd
.	2c	.	.	.
.	2d	.	1G	1b-y
.	2B-y	.	.	.
=118	=118	=118	=118	=118
1C	1e-i	0r	1.g	1cc
0D	0d	.	.	0a
.	.	.	4f#i	.
.	.	.	4e	.
.	.	1d	1f#i	.
=119	=119	=119	=119	=119
0GG	1r	1e	0g	1g
.	1B-y	1d	.	0r
1r	2G	2B-y	1r	.
.	2A	2c	.	.
=120	=120	=120	=120	=120
1BB-y	1B-y	1d	1f	1%3r
2E-i	1G	2B-y	2g	.
2C	.	2c	2e	.
1D	1d	1A	1f	.
=121	=121	=121	=121	=121
1.E	1.c	1.G	0g	0r
2C	4B-y	2E	.	.
.	4A	.	.	.
1D	1B-y	1F	1f	1dd
=122	=122	=122	=122	=122
1C	1c	1G	1e	1ee
1BB-y	0r	1d	1f	1dd
2GG	.	1e	1g	2b-y
2AA	.	.	.	2cc
=123	=123	=123	=123	=123
1BB-y	1B-y	2d	1f	1dd
.	.	1d	.	.
2GG	2B-y	.	2g	2b-y
1AA	1A	1c	1e	2cc
.	.	.	.	1a
2D	2F#i	2A	2d	.
=124	=124	=124	=124	=124
1G	1G	1B-y	1d	1.g
1C	1E	1c	1r	.
.	.	.	.	2e
1D	1D	1A	1d	1f#i
=125	=125	=125	=125	=125
0GG	1D	[0.Gl	0B-y	[0.gl
.	1.G	.	.	.
1C	.	.	1c	.
.	2F	.	.	.
=126	=126	=126	=126	=126
1BB-y	1D	0.G_	1.d	0.g_
0C	0E	.	.	.
.	.	.	4c	.
.	.	.	4B-y	.
.	.	.	1c	.
=127	=127	=127	=127	=127
[0.GGl	[0.Dl	0.G_	0.B-y	0.g_
=128	=128	=128	=128	=128
00GG]	00D]	00G]	00dl	00g]
==	==	==	==	==
*-	*-	*-	*-	*-
!!!system-decoration: [*]
!!!RDF**kern: i = editorial accidental
!!!RDF**kern: l = terminal long
!!!ENC: Benjamin Ory
!!!END: 2022/2/22
!!!EED: Benjamin Ory
!!!EEV: 2022/02/06
!!!YEC: Copyright 2022 Benjamin Ory, All Rights Reserved
!!!ONB: Translated from MusicXML on 2022/02/06
